packages/sights/assets/overlays/D4r9OKHt.svg

<svg width="500" height="375" viewBox="0 0 500 375" fill="none" xmlns="http://www.w3.org/2000/svg">
<path d="M7 40.26L29.21 23.14C29.21 23.14 61.31 8.57 74.46 5" stroke="white" stroke-miterlimit="10"/>
<path d="M7 289.36L268 348.29L265.93 341.64L266.16 325.36C266.16 325.36 266.61 220.83 402.82 222.17C402.82 222.17 463.03 225.84 493 244.65" stroke="white" stroke-miterlimit="10"/>
<path d="M7 46.99C7 46.99 56.42 8.27 132.07 5" stroke="white" stroke-miterlimit="10"/>
<path d="M329.59 5C329.59 5 382.18 57.08 395.07 75.42C395.07 75.42 18.4703 99.27 7.07031 105.69" stroke="white" stroke-miterlimit="10"/>
<path d="M145.069 5C145.069 5 112.139 82.51 112.329 95L103.329 102.23L90.0695 133.66V139.17C90.0695 139.17 83.3195 190.07 93.0695 235.93C93.0241 239.994 92.0564 243.995 90.2394 247.63L82.4395 263.91L85.4395 292.34L84.7595 294.63L99.1095 310.16" stroke="white" stroke-miterlimit="10"/>
<path d="M395.071 75.4199L401.181 81.6899L412.041 113.69C412.041 113.69 394.381 179.57 382.461 199.29" stroke="white" stroke-miterlimit="10"/>
<path d="M307.73 222.16C330.25 208.38 361.29 198.32 403.73 199.24" stroke="white" stroke-miterlimit="10"/>
<path d="M7 255.65C7 255.65 244.6 292.83 251.94 291.42" stroke="white" stroke-miterlimit="10"/>
<path d="M45.9503 143.6L46.7103 144.14L43.7103 146.2L44.4803 147.04H61.3903L62.9203 146.28L67.5003 142.91L69.9503 142.61L81.0703 144.83L82.2203 147.05L81.6403 152.83L79.8103 153.98C79.8103 153.98 43.4303 155.2 37.5403 154.51L35.7103 153.06L35.0703 148.19L36.6703 146.43C39.5546 144.903 42.7047 143.942 45.9503 143.6V143.6Z" stroke="white" stroke-miterlimit="10"/>
<path d="M315.219 136.76L316.219 137.33L317.139 140.43L320.469 141.8C320.469 141.8 351.189 143.07 352.909 141.8L355.319 138.94L356.119 136.19L358.419 134.47C358.419 134.47 379.739 135.38 382.419 137.91L384.139 140.91C384.139 140.91 383.449 147.79 382.419 148.82L379.319 150.88C379.319 150.88 306.319 153.17 301.469 152.14L297.469 150.42L298.049 142.51L301.599 140.1C305.866 138.077 310.5 136.94 315.219 136.76Z" stroke="white" stroke-miterlimit="10"/>
<path d="M267.99 348.29L271.66 343.93V338.43L280.71 321.46L286.33 322.03" stroke="white" stroke-miterlimit="10"/>
<path d="M311.87 369.83C308.075 355.127 308.86 339.615 314.12 325.37C331.04 280.37 389.64 260.68 445 281.48C463.436 288.287 480.012 299.335 493.39 313.73" stroke="white" stroke-miterlimit="10"/>
<path d="M493.39 263.91C493.39 263.91 442.71 204.98 344.39 238.22C344.39 238.22 320.15 250.38 309.57 268.49L289.82 308.39C289.82 308.39 279.27 340.96 289.82 369.5" stroke="white" stroke-miterlimit="10"/>
<path d="M442.48 201.77C442.48 201.77 478.85 208.19 493 215.52" stroke="white" stroke-miterlimit="10"/>
</svg>

<svg width="500" height="375" fill="none" xmlns="http://www.w3.org/2000/svg"><path d="m7 40.26 22.21-17.12S61.31 8.57 74.46 5M7 289.36l261 58.93-2.07-6.65.23-16.28s.45-104.53 136.66-103.19c0 0 60.21 3.67 90.18 22.48M7 46.99S56.42 8.27 132.07 5M329.59 5s52.59 52.08 65.48 70.42c0 0-376.6 23.85-388 30.27" stroke="#fff" stroke-miterlimit="10"/><path d="M145.069 5s-32.93 77.51-32.74 90l-9 7.23-13.26 31.43v5.51s-6.75 50.9 3 96.76a26.84 26.84 0 0 1-2.83 11.7l-7.8 16.28 3 28.43-.68 2.29 14.35 15.53M395.071 75.42l6.11 6.27 10.86 32s-17.66 65.88-29.58 85.6" stroke="#fff" stroke-miterlimit="10"/><path d="M307.73 222.16c22.52-13.78 53.56-23.84 96-22.92M7 255.65s237.6 37.18 244.94 35.77M45.95 143.6l.76.54-3 2.06.77.84h16.91l1.53-.76 4.58-3.37 2.45-.3 11.12 2.22 1.15 2.22-.58 5.78-1.83 1.15s-36.38 1.22-42.27.53l-1.83-1.45-.64-4.87 1.6-1.76a25.559 25.559 0 0 1 9.28-2.83ZM315.219 136.76l1 .57.92 3.1 3.33 1.37s30.72 1.27 32.44 0l2.41-2.86.8-2.75 2.3-1.72s21.32.91 24 3.44l1.72 3s-.69 6.88-1.72 7.91l-3.1 2.06s-73 2.29-77.85 1.26l-4-1.72.58-7.91 3.55-2.41a34.9 34.9 0 0 1 13.62-3.34ZM267.99 348.29l3.67-4.36v-5.5l9.05-16.97 5.62.57M311.87 369.83a74.56 74.56 0 0 1 2.25-44.46c16.92-45 75.52-64.69 130.88-43.89a125.318 125.318 0 0 1 48.39 32.25" stroke="#fff" stroke-miterlimit="10"/><path d="M493.39 263.91s-50.68-58.93-149-25.69c0 0-24.24 12.16-34.82 30.27l-19.75 39.9s-10.55 32.57 0 61.11M442.48 201.77s36.37 6.42 50.52 13.75" stroke="#fff" stroke-miterlimit="10"/></svg>
